;FLAVOR:RepRap
;TIME:28915
;Generated with Cura_SteamEngine 2.3.0
M190 S60
M104 S210
M109 S210
G21 ;metric values
G90 ;absolute positioning
M82 ;set extruder to absolute mode
M107 ;start with the fan off
G28 X0 Y0 ;move X/Y to min endstops
G28 Z0 ;move Z to min endstops
G1 Z15.0 F9000 ;move the platform down 15mm
G92 E0 ;zero the extruded length
G1 F200 E3 ;extrude 3mm of feed stock
G92 E0 ;zero the extruded length again
G1 F9000
;Put printing message on LCD screen
M117 Printing...
;LAYER_COUNT:78
;LAYER:0
M107
G0 F3600 X67.753 Y56.168 Z.3
;TYPE:SKIRT
G1 F1800 X68.679 Y55.06 E0.07204
G1 X68.831 Y54.891 E0.08338
G1 X69.832 Y53.853 E0.15532
G1 X70.086 Y53.616 E0.17266
G1 X72.265 Y51.799 E0.3142
G1 X72.568 Y51.575 E0.333
G1 X74.079 Y50.591 E0.42296
G1 X74.34 Y50.439 E0.43803
G1 X76.208 Y49.46 E0.54325
G1 X76.526 Y49.314 E0.56071
G1 X78.533 Y48.528 E0.66824
G1 X78.851 Y48.423 E0.68495
G1 X80.893 Y47.861 E0.79061
G1 X81.167 Y47.798 E0.80464
G1 X82.564 Y47.543 E0.87549
G1 X82.796 Y47.509 E0.88719
G1 X84.215 Y47.356 E0.95839
G1 X84.546 Y47.338 E0.97493
G1 X101.091 Y47.275 E1.80037
G1 X101.238 Y47.278 E1.8077
G1 X104.287 Y47.407 E1.95995
G1 X104.662 Y47.445 E1.97876
G1 X106.755 Y47.783 E2.08453
G1 X107.059 Y47.847 E2.10003
G1 X108.74 Y48.289 E2.18675
G1 X108.985 Y48.364 E2.19953
G1 X110.36 Y48.846 E2.27222
G1 X110.679 Y48.978 E2.28944
G1 X113.249 Y50.204 E2.4315
G1 X113.55 Y50.368 E2.44861
G1 X114.746 Y51.105 E2.51869
G1 X114.935 Y51.231 E2.53003
G1 X116.123 Y52.085 E2.60302
G1 X116.307 Y52.228 E2.61465
G1 X117.415 Y53.154 E2.68669
G1 X117.585 Y53.307 E2.6981
G1 X118.622 Y54.308 E2.77001
G1 X118.857 Y54.56 E2.7872
G1 X120.675 Y56.739 E2.92878
G1 X120.9 Y57.043 E2.94764
G1 X121.884 Y58.554 E3.0376
G1 X122.036 Y58.813 E3.05259
G1 X123.011 Y60.671 E3.15727
G1 X123.157 Y60.991 E3.17482
G1 X123.947 Y63.008 E3.28289
G1 X124.052 Y63.326 E3.2996
G1 X124.614 Y65.368 E3.40526
G1 X124.677 Y65.642 E3.41929
G1 X124.932 Y67.038 E3.49009
G1 X124.965 Y67.269 E3.50173
G1 X125.118 Y68.683 E3.57269
G1 X125.136 Y68.933 E3.58519
G1 X125.292 Y74.255 E3.85082
G1 X125.702 Y79.73 E4.12473
G1 X126.416 Y85.141 E4.39703
G1 X127.438 Y90.525 E4.67044
G1 X128.06 Y93.176 E4.80629
G1 X129.543 Y98.478 E5.08096
G1 X131.304 Y103.636 E5.35287
G1 X133.377 Y108.738 E5.62762
G1 X136.709 Y115.857 E6.01977
G1 X136.887 Y116.331 E6.04503
G1 X136.994 Y116.882 E6.07303
G1 X137.183 Y118.694 E6.16392
G1 X137.2 Y119.03 E6.18071
G1 X137.166 Y144.776 E7.46518
G1 X137.136 Y145.212 E7.48699
G1 X136.994 Y146.234 E7.53846
G1 X136.885 Y146.728 E7.5637
G1 X136.786 Y147.005 E7.57838
G1 X136.295 Y148.206 E7.64311
G1 X136.067 Y148.657 E7.66832
G1 X135.881 Y148.931 E7.68484
G1 X135.089 Y149.973 E7.75014
G1 X134.752 Y150.35 E7.77537
G1 X134.499 Y150.568 E7.79203
G1 X133.474 Y151.361 E7.85669
G1 X133.051 Y151.638 E7.88191
G1 X132.756 Y151.78 E7.89825
G1 X131.555 Y152.285 E7.96325
G1 X131.075 Y152.443 E7.98846
G1 X130.701 Y152.512 E8.00743
G1 X129.161 Y152.699 E8.08483
G1 X128.743 Y152.722 E8.10571
G1 X121.447 Y152.649 E8.46973
G1 X107.999 Y152.705 E9.14066
G1 X107.495 Y152.667 E9.16587
G1 X107.003 Y152.55 E9.1911
G1 X106.536 Y152.358 E9.2163
G1 X106.211 Y152.168 E9.23508
G1 X64.237 Y124.185 E11.75187
G1 X63.84 Y123.872 E11.77709
G1 X63.497 Y123.5 E11.80234
G1 X63.217 Y123.079 E11.82756
G1 X63.006 Y122.62 E11.85277
G1 X62.871 Y122.133 E11.87798
G1 X62.812 Y121.527 E11.90835
G1 X62.8 Y114.236 E12.2721
G1 X62.801 Y114.154 E12.2762
G1 X62.878 Y110.941 E12.43654
G1 X62.8 Y71.378 E14.41035
G1 X62.803 Y71.237 E14.41739
G1 X62.932 Y68.188 E14.56964
G1 X62.97 Y67.813 E14.58844
G1 X63.309 Y65.714 E14.69452
G1 X63.373 Y65.409 E14.71007
G1 X63.814 Y63.734 E14.79648
G1 X63.889 Y63.49 E14.80921
G1 X64.371 Y62.115 E14.88191
G1 X64.503 Y61.797 E14.89908
G1 X65.728 Y59.228 E15.04108
G1 X65.893 Y58.925 E15.05829
G1 X66.631 Y57.729 E15.1284
G1 X66.755 Y57.542 E15.1396
G1 X67.609 Y56.353 E15.21263
G1 X67.753 Y56.168 E15.22433
G0 F3600 X69.725 Y57.759
G0 X70.741 Y58.576
G0 X70.544 Y58.916
G0 X70.464 Y58.857
;TYPE:WALL-INNER
G1 F1800 X71.343 Y57.766 E15.29423
G1 X72.282 Y56.757 E15.36299
G1 X73.283 Y55.826 E15.43119
G1 X74.388 Y54.936 E15.50198
G1 X75.501 Y54.162 E15.56962
G1 X76.694 Y53.455 E15.6388
G1 X77.947 Y52.827 E15.70873
G1 X79.219 Y52.3 E15.77742
G1 X80.536 Y51.863 E15.84665
G1 X81.875 Y51.52 E15.91561
G1 X83.242 Y51.273 E15.98491
G1 X84.618 Y51.125 E16.05395
G1 X86.021 Y51.075 E16.12399
G1 X101.979 Y51.075 E16.92014
G1 X103.382 Y51.125 E16.99018
G1 X104.758 Y51.273 E17.05923
G1 X106.125 Y51.52 E17.12853
G1 X107.464 Y51.863 E17.19749
G1 X108.781 Y52.3 E17.26672
G1 X110.053 Y52.827 E17.33541
G1 X111.306 Y53.455 E17.40534
G1 X112.499 Y54.162 E17.47452
G1 X113.612 Y54.936 E17.54216
G1 X114.717 Y55.826 E17.61294
G1 X115.718 Y56.757 E17.68114
G1 X116.657 Y57.766 E17.74991
G1 X117.536 Y58.857 E17.81981
G1 X118.313 Y59.976 E17.88777
G1 X119.02 Y61.169 E17.95696
G1 X119.648 Y62.422 E18.02688
G1 X120.173 Y63.69 E18.09535
G1 X120.614 Y65.016 E18.16507
G1 X120.954 Y66.346 E18.23356
G1 X121.203 Y67.722 E18.30332
G1 X121.351 Y69.1 E18.37247
G1 X121.4 Y70.475 E18.44111
G1 X121.4 Y76.375 E18.73546
G1 X111.573 Y104.824 E20.23708
G1 X103.4 Y104.824 E20.64483
G1 X103.4 Y114.124 E21.10881
G1 X128.96 Y114.124 E22.384
G1 X130.137 Y114.279 E22.44323
G1 X131.197 Y114.718 E22.50047
G1 X132.107 Y115.417 E22.55772
G1 X132.806 Y116.327 E22.61496
G1 X133.245 Y117.387 E22.6722
G1 X133.4 Y118.564 E22.73143
G1 X133.4 Y144.485 E24.02464
G1 X133.245 Y145.662 E24.08386
G1 X132.806 Y146.722 E24.1411
G1 X132.107 Y147.632 E24.19835
G1 X131.197 Y148.331 E24.2556
G1 X130.137 Y148.77 E24.31284
G1 X128.96 Y148.925 E24.37207
G1 X124.6 Y148.925 E24.58959
G1 X124.6 Y140.925 E24.98871
G1 X115.4 Y140.925 E25.4477
G1 X115.4 Y148.925 E25.84682
G1 X108.182 Y148.925 E26.20693
G1 X66.6 Y121.203 E28.70023
G1 X66.6 Y114.124 E29.0534
G1 X74.6 Y114.124 E29.45252
G1 X74.6 Y104.824 E29.9165
G1 X66.6 Y104.824 E30.31562
G1 X66.6 Y70.496 E32.02825
G1 X66.649 Y69.099 E32.09799
G1 X66.797 Y67.722 E32.16709
G1 X67.046 Y66.346 E32.23685
G1 X67.386 Y65.016 E32.30534
G1 X67.827 Y63.69 E32.37506
G1 X68.352 Y62.422 E32.44352
G1 X68.98 Y61.169 E32.51345
G1 X69.687 Y59.976 E32.58263
G1 X70.464 Y58.857 E32.6506
G0 F3600 X70.544 Y58.916
G0 X77.938 Y66.773
G0 X78.001 Y66.85
G1 F1800 X77.195 Y67.711 E32.70944
G1 X76.626 Y68.743 E32.76823
G1 X76.333 Y69.887 E32.82715
G1 X76.333 Y71.064 E32.88587
G1 X76.626 Y72.208 E32.94479
G1 X77.195 Y73.24 E33.00358
G1 X78.001 Y74.101 E33.06242
G1 X78.997 Y74.732 E33.12125
G1 X80.118 Y75.097 E33.18006
G1 X81.296 Y75.17 E33.23895
G1 X82.454 Y74.95 E33.29775
G1 X83.521 Y74.447 E33.3566
G1 X84.43 Y73.696 E33.41543
G1 X85.123 Y72.742 E33.47426
G1 X85.557 Y71.645 E33.53311
G1 X85.706 Y70.475 E33.59196
G1 X85.557 Y69.306 E33.65075
G1 X85.123 Y68.209 E33.70961
G1 X84.43 Y67.255 E33.76843
G1 X83.521 Y66.504 E33.82726
G1 X82.454 Y66.001 E33.88611
G1 X81.296 Y65.781 E33.94492
G1 X80.118 Y65.854 E34.0038
G1 X78.997 Y66.219 E34.06262
G1 X78.001 Y66.85 E34.12144
G0 F3600 X77.938 Y66.773
G0 X78.98 Y66.183
G0 X80.111 Y65.815
G0 X81.298 Y65.742
G0 X82.466 Y65.963
G0 X93.355 Y69.502
G0 X93.454 Y69.513
G1 F1800 X93.4 Y70.475 E34.16951
G1 X93.454 Y71.438 E34.21763
G1 X93.615 Y72.389 E34.26575
G1 X93.882 Y73.316 E34.31388
G1 X94.252 Y74.208 E34.36206
G1 X94.718 Y75.052 E34.41016
G1 X95.276 Y75.838 E34.45825
G1 X95.919 Y76.557 E34.50637
G1 X96.638 Y77.2 E34.55449
G1 X97.424 Y77.758 E34.60258
G1 X98.268 Y78.224 E34.65068
G1 X99.16 Y78.594 E34.69886
G1 X100.085 Y78.861 E34.74689
G1 X101.037 Y79.022 E34.79506
G1 X102 Y79.076 E34.84318
G1 X102.962 Y79.022 E34.89125
G1 X103.913 Y78.861 E34.93938
G1 X104.84 Y78.594 E34.9875
G1 X105.732 Y78.224 E35.03568
G1 X106.576 Y77.758 E35.08378
G1 X107.362 Y77.2 E35.13187
G1 X108.081 Y76.557 E35.18
G1 X108.724 Y75.838 E35.22812
G1 X109.282 Y75.052 E35.27621
G1 X109.748 Y74.208 E35.32431
G1 X110.118 Y73.316 E35.37249
G1 X110.385 Y72.389 E35.42061
G1 X110.546 Y71.438 E35.46874
G1 X110.601 Y70.475 E35.51686
G1 X110.546 Y69.513 E35.56493
G1 X110.385 Y68.562 E35.61305
G1 X110.118 Y67.635 E35.66118
G1 X109.748 Y66.743 E35.70936
G1 X109.282 Y65.899 E35.75746
G1 X108.724 Y65.113 E35.80555
G1 X108.081 Y64.394 E35.85367
G1 X107.362 Y63.751 E35.90179
G1 X106.576 Y63.193 E35.94989
G1 X105.732 Y62.727 E35.99798
G1 X104.84 Y62.357 E36.04616
G1 X103.913 Y62.09 E36.09429
G1 X102.962 Y61.929 E36.14241
G1 X102 Y61.874 E36.19048
G1 X101.037 Y61.929 E36.23861
G1 X100.085 Y62.09 E36.28678
G1 X99.16 Y62.357 E36.33481
G1 X98.268 Y62.727 E36.38299
G1 X97.424 Y63.193 E36.43109
G1 X96.638 Y63.751 E36.47918
G1 X95.919 Y64.394 E36.5273
G1 X95.276 Y65.113 E36.57542
G1 X94.718 Y65.899 E36.62351
G1 X94.252 Y66.743 E36.67161
G1 X93.882 Y67.635 E36.71979
G1 X93.615 Y68.562 E36.76792
G1 X93.454 Y69.513 E36.81604
G0 F3600 X93.355 Y69.502
G0 X89.142 Y107.175
G0 X89.137 Y107.274
G1 F1800 X88.572 Y107.313 E36.8443
G1 X88.046 Y107.489 E36.87197
G1 X87.583 Y107.788 E36.89947
G1 X87.208 Y108.193 E36.927
G1 X86.946 Y108.678 E36.9545
G1 X86.813 Y109.215 E36.98211
G1 X86.816 Y109.768 E37.00969
G1 X86.958 Y110.302 E37.03726
G1 X87.229 Y110.784 E37.06485
G1 X87.608 Y111.182 E37.09227
G1 X88.061 Y111.469 E37.11902
G1 X88.587 Y111.64 E37.14662
G1 X89.139 Y111.674 E37.17421
G1 X89.682 Y111.572 E37.20177
G1 X90.182 Y111.335 E37.22938
G1 X90.608 Y110.984 E37.25692
G1 X90.934 Y110.536 E37.28456
G1 X91.135 Y110.022 E37.31209
G1 X91.206 Y109.474 E37.33966
G1 X91.135 Y108.927 E37.36718
G1 X90.934 Y108.413 E37.39471
G1 X90.608 Y107.965 E37.42236
G1 X90.182 Y107.614 E37.44989
G1 X89.682 Y107.377 E37.4775
G1 X89.137 Y107.274 E37.50517
G0 F3600 X89.142 Y107.175
G0 X89.694 Y107.339
G0 X90.203 Y107.581
G0 X118.126 Y130.186
G0 X118.207 Y130.244
G1 F1800 X117.945 Y130.73 E37.53272
G1 X117.812 Y131.265 E37.56022
G1 X117.815 Y131.818 E37.58781
G1 X117.957 Y132.352 E37.61538
G1 X118.228 Y132.834 E37.64297
G1 X118.607 Y133.232 E37.67038
G1 X119.06 Y133.519 E37.69714
G1 X119.586 Y133.69 E37.72473
G1 X120.138 Y133.724 E37.75232
G1 X120.681 Y133.622 E37.77989
G1 X121.181 Y133.385 E37.80749
G1 X121.607 Y133.034 E37.83503
G1 X121.933 Y132.586 E37.86267
G1 X122.134 Y132.072 E37.89021
G1 X122.205 Y131.524 E37.91778
G1 X122.134 Y130.977 E37.9453
G1 X121.933 Y130.463 E37.97283
G1 X121.607 Y130.015 E38.00047
G1 X121.181 Y129.664 E38.02801
G1 X120.681 Y129.427 E38.05562
G1 X120.136 Y129.324 E38.08329
G1 X119.571 Y129.363 E38.11154
G1 X119.045 Y129.539 E38.13922
G1 X118.582 Y129.838 E38.16671
G1 X118.207 Y130.244 E38.19429
G0 F3600 X118.535 Y130.478
;TYPE:WALL-OUTER
G1 F1800 X118.321 Y130.875 E38.21679
G1 X118.212 Y131.313 E38.2393
G1 X118.215 Y131.764 E38.26181
G1 X118.331 Y132.2 E38.28431
G1 X118.552 Y132.594 E38.30685
G1 X118.863 Y132.92 E38.32933
G1 X119.232 Y133.154 E38.35113
G1 X119.662 Y133.294 E38.37369
G1 X120.113 Y133.322 E38.39623
G1 X120.556 Y133.238 E38.41873
G1 X120.965 Y133.045 E38.44129
G1 X121.313 Y132.758 E38.4638
G1 X121.579 Y132.392 E38.48637
G1 X121.744 Y131.972 E38.50888
G1 X121.802 Y131.524 E38.53142
G1 X121.744 Y131.077 E38.55391
G1 X121.579 Y130.657 E38.57642
G1 X121.313 Y130.291 E38.59899
G1 X120.965 Y130.004 E38.6215
G1 X120.556 Y129.811 E38.64406
G1 X120.112 Y129.727 E38.66661
G1 X119.649 Y129.759 E38.68976
G1 X119.22 Y129.902 E38.71232
G1 X118.841 Y130.147 E38.73484
G1 X118.535 Y130.478 E38.75732
G0 F3600 X118.096 Y130.241
G0 X117.773 Y131.261
G0 X115.8 Y140.825
G0 X115.8 Y141.325
G1 F1800 X115.8 Y149.325 E39.15645
G1 X108.06 Y149.325 E39.5426
G1 X66.2 Y121.417 E42.05258
G1 X66.2 Y113.724 E42.43639
G1 X74.2 Y113.724 E42.83551
G1 X74.2 Y105.224 E43.25958
G1 X66.2 Y105.224 E43.6587
G1 X66.2 Y70.482 E45.39198
G1 X66.25 Y69.07 E45.46247
G1 X66.401 Y67.665 E45.53297
G1 X66.655 Y66.26 E45.6042
G1 X67.001 Y64.904 E45.67402
G1 X67.452 Y63.549 E45.74527
G1 X67.987 Y62.257 E45.81504
G1 X68.626 Y60.981 E45.88623
G1 X69.347 Y59.765 E45.95676
G1 X70.146 Y58.615 E46.02662
G1 X71.042 Y57.503 E46.09787
G1 X71.999 Y56.474 E46.16798
G1 X73.028 Y55.517 E46.23808
G1 X74.137 Y54.624 E46.30912
G1 X75.29 Y53.822 E46.37919
G1 X76.506 Y53.101 E46.44972
G1 X77.782 Y52.462 E46.52092
G1 X79.079 Y51.925 E46.59095
G1 X80.424 Y51.478 E46.66166
G1 X81.789 Y51.129 E46.73195
G1 X83.185 Y50.877 E46.80272
G1 X84.588 Y50.726 E46.87312
G1 X86.007 Y50.675 E46.94396
G1 X101.993 Y50.675 E47.74151
G1 X103.412 Y50.726 E47.81235
G1 X104.815 Y50.877 E47.88275
G1 X106.211 Y51.129 E47.95352
G1 X107.576 Y51.478 E48.02381
G1 X108.921 Y51.925 E48.09452
G1 X110.218 Y52.462 E48.16456
G1 X111.494 Y53.101 E48.23575
G1 X112.71 Y53.822 E48.30628
G1 X113.863 Y54.624 E48.37635
G1 X114.972 Y55.517 E48.44739
G1 X116.001 Y56.474 E48.5175
G1 X116.958 Y57.503 E48.58761
G1 X117.854 Y58.615 E48.65885
G1 X118.653 Y59.765 E48.72871
G1 X119.374 Y60.981 E48.79924
G1 X120.013 Y62.257 E48.87044
G1 X120.548 Y63.549 E48.9402
G1 X120.999 Y64.904 E49.01145
G1 X121.345 Y66.26 E49.08127
G1 X121.599 Y67.665 E49.1525
G1 X121.75 Y69.07 E49.223
G1 X121.8 Y70.475 E49.29314
G1 X121.8 Y76.442 E49.59084
G1 X111.858 Y105.224 E51.11003
G1 X103.8 Y105.224 E51.51205
G1 X103.8 Y113.724 E51.93611
G1 X128.989 Y113.724 E53.1928
G1 X130.241 Y113.889 E53.2558
G1 X131.398 Y114.368 E53.31827
G1 X132.392 Y115.132 E53.38082
G1 X133.156 Y116.126 E53.44337
G1 X133.635 Y117.283 E53.50584
G1 X133.8 Y118.535 E53.56884
G1 X133.8 Y144.514 E54.86494
G1 X133.635 Y145.766 E54.92794
G1 X133.156 Y146.923 E54.99042
G1 X132.392 Y147.917 E55.05296
G1 X131.398 Y148.681 E55.11551
G1 X130.241 Y149.16 E55.17799
G1 X128.989 Y149.325 E55.24099
G1 X124.2 Y149.325 E55.47991
G1 X124.2 Y141.325 E55.87903
G1 X115.8 Y141.325 E56.29811
G0 F3600 X115.8 Y140.825
G0 X90.632 Y111.093
G0 X90.314 Y110.708
G1 F1800 X90.58 Y110.342 E56.32068
G1 X90.745 Y109.922 E56.3432
G1 X90.803 Y109.474 E56.36573
G1 X90.745 Y109.027 E56.38822
G1 X90.58 Y108.607 E56.41074
G1 X90.314 Y108.241 E56.43331
G1 X89.966 Y107.954 E56.45581
G1 X89.557 Y107.761 E56.47838
G1 X89.113 Y107.677 E56.50092
G1 X88.65 Y107.709 E56.52407
G1 X88.221 Y107.852 E56.54663
G1 X87.842 Y108.097 E56.56915
G1 X87.536 Y108.428 E56.59164
G1 X87.322 Y108.824 E56.6141
G1 X87.213 Y109.263 E56.63666
G1 X87.216 Y109.714 E56.65916
G1 X87.332 Y110.15 E56.68167
G1 X87.553 Y110.544 E56.70421
G1 X87.864 Y110.87 E56.72669
G1 X88.233 Y111.104 E56.74849
G1 X88.663 Y111.244 E56.77105
G1 X89.114 Y111.272 E56.79359
G1 X89.557 Y111.188 E56.81609
G1 X89.966 Y110.995 E56.83865
G1 X90.314 Y110.708 E56.86116
G0 F3600 X90.632 Y111.093
G0 X90.969 Y110.555
G0 X91.173 Y110.031
G0 X99.101 Y78.677
G0 X99.292 Y78.216
G1 F1800 X100.174 Y78.47 E56.90695
G1 X101.082 Y78.624 E56.95289
G1 X102 Y78.675 E56.99876
G1 X102.917 Y78.624 E57.04458
G1 X103.824 Y78.47 E57.09048
G1 X104.708 Y78.216 E57.13637
G1 X105.558 Y77.863 E57.18229
G1 X106.363 Y77.419 E57.22815
G1 X107.112 Y76.887 E57.27399
G1 X107.798 Y76.274 E57.31989
G1 X108.411 Y75.588 E57.36578
G1 X108.943 Y74.839 E57.41162
G1 X109.387 Y74.034 E57.45748
G1 X109.74 Y73.184 E57.5034
G1 X109.994 Y72.3 E57.54929
G1 X110.148 Y71.393 E57.59519
G1 X110.2 Y70.475 E57.64106
G1 X110.148 Y69.558 E57.68688
G1 X109.994 Y68.651 E57.73278
G1 X109.74 Y67.767 E57.77867
G1 X109.387 Y66.917 E57.82459
G1 X108.943 Y66.112 E57.87045
G1 X108.411 Y65.363 E57.91629
G1 X107.798 Y64.677 E57.96218
G1 X107.112 Y64.064 E58.00808
G1 X106.363 Y63.532 E58.05392
G1 X105.558 Y63.088 E58.09978
G1 X104.708 Y62.735 E58.1457
G1 X103.824 Y62.481 E58.19159
G1 X102.917 Y62.327 E58.23749
G1 X102 Y62.275 E58.28331
G1 X101.082 Y62.327 E58.32918
G1 X100.174 Y62.481 E58.37513
G1 X99.292 Y62.735 E58.42092
G1 X98.442 Y63.088 E58.46684
G1 X97.637 Y63.532 E58.5127
G1 X96.888 Y64.064 E58.55854
G1 X96.202 Y64.677 E58.60444
G1 X95.589 Y65.363 E58.65033
G1 X95.057 Y66.112 E58.69617
G1 X94.613 Y66.917 E58.74203
G1 X94.26 Y67.767 E58.78795
G1 X94.006 Y68.651 E58.83384
G1 X93.852 Y69.558 E58.87974
G1 X93.801 Y70.475 E58.92556
G1 X93.852 Y71.393 E58.97143
G1 X94.006 Y72.3 E59.01733
G1 X94.26 Y73.184 E59.06321
G1 X94.613 Y74.034 E59.10913
G1 X95.057 Y74.839 E59.155
G1 X95.589 Y75.588 E59.20083
G1 X96.202 Y76.274 E59.24673
G1 X96.888 Y76.887 E59.29263
