;FLAVOR:RepRap
;TIME:28906
;Generated with Cura_SteamEngine 2.3.0
M190 S60
M104 S210
M109 S210
G21 ;metric values
G90 ;absolute positioning
M82 ;set extruder to absolute mode
M107 ;start with the fan off
G28 X0 Y0 ;move X/Y to min endstops
G28 Z0 ;move Z to min endstops
G1 Z15.0 F9000 ;move the platform down 15mm
G92 E0 ;zero the extruded length
G1 F200 E3 ;extrude 3mm of feed stock
G92 E0 ;zero the extruded length again
G1 F9000
;Put printing message on LCD screen
M117 Printing...
;LAYER_COUNT:78
;LAYER:0
M107
G0 F3600 X78.808 Y57.469 Z.3
;TYPE:SKIRT
G1 F1800 X80.354 Y55.439 E0.1273
G1 X80.572 Y55.183 E0.14408
G1 X81.748 Y53.936 E0.22959
G1 X81.935 Y53.752 E0.24268
G1 X83.025 Y52.771 E0.31584
G1 X83.2 Y52.625 E0.32721
G1 X84.33 Y51.745 E0.39867
G1 X84.514 Y51.612 E0.40999
G1 X85.691 Y50.823 E0.48069
G1 X85.917 Y50.685 E0.4939
G1 X87.482 Y49.814 E0.58326
G1 X87.753 Y49.68 E0.59834
G1 X89.7 Y48.826 E0.70441
G1 X90.083 Y48.686 E0.72475
G1 X92.84 Y47.876 E0.86811
G1 X93.167 Y47.798 E0.88488
G1 X94.564 Y47.543 E0.95573
G1 X94.796 Y47.509 E0.96743
G1 X96.215 Y47.356 E1.03864
G1 X96.546 Y47.338 E1.05517
G1 X113.106 Y47.276 E1.88136
G1 X113.253 Y47.279 E1.8887
G1 X116.287 Y47.407 E2.0402
G1 X116.662 Y47.445 E2.059
G1 X118.755 Y47.783 E2.16478
G1 X119.059 Y47.847 E2.18027
G1 X120.74 Y48.289 E2.26699
G1 X120.985 Y48.364 E2.27977
G1 X122.36 Y48.846 E2.35247
G1 X122.679 Y48.978 E2.36969
G1 X125.249 Y50.204 E2.51175
G1 X125.55 Y50.368 E2.52885
G1 X126.746 Y51.105 E2.59894
G1 X126.935 Y51.231 E2.61027
G1 X128.123 Y52.085 E2.68327
G1 X128.307 Y52.228 E2.69489
G1 X129.415 Y53.154 E2.76693
G1 X129.585 Y53.307 E2.77834
G1 X130.622 Y54.308 E2.85025
G1 X130.857 Y54.56 E2.86744
G1 X132.675 Y56.739 E3.00902
G1 X132.9 Y57.043 E3.02789
G1 X133.884 Y58.554 E3.11785
G1 X134.036 Y58.813 E3.13283
G1 X135.011 Y60.671 E3.23751
G1 X135.157 Y60.991 E3.25506
G1 X135.947 Y63.008 E3.36313
G1 X136.052 Y63.326 E3.37984
G1 X136.614 Y65.368 E3.48551
G1 X136.677 Y65.642 E3.49953
G1 X136.932 Y67.038 E3.57033
G1 X136.965 Y67.269 E3.58197
G1 X137.118 Y68.683 E3.65293
G1 X137.136 Y68.942 E3.66588
G1 X137.198 Y71.271 E3.78212
G1 X137.199 Y71.357 E3.78641
G1 X137.185 Y105.721 E5.50084
G1 X137.185 Y105.76 E5.50278
G1 X137.122 Y110.787 E5.7536
G1 X137.198 Y113.768 E5.90237
G1 X137.199 Y113.855 E5.90671
G1 X137.186 Y121.526 E6.28942
G1 X137.145 Y122.03 E6.31465
G1 X137.026 Y122.522 E6.3399
G1 X136.83 Y122.988 E6.36512
G1 X136.564 Y123.417 E6.39031
G1 X136.233 Y123.8 E6.41556
G1 X135.761 Y124.183 E6.44589
G1 X93.792 Y152.165 E8.96244
G1 X93.351 Y152.412 E8.98766
G1 X92.876 Y152.586 E9.0129
G1 X92.38 Y152.682 E9.0381
G1 X92.004 Y152.703 E9.05689
G1 X78.674 Y152.648 E9.72193
G1 X75.771 Y152.723 E9.86681
G1 X75.667 Y152.724 E9.872
G1 X70.73 Y152.69 E10.11832
G1 X70.314 Y152.66 E10.13913
G1 X69.3 Y152.52 E10.19019
G1 X68.807 Y152.411 E10.21538
G1 X68.528 Y152.312 E10.23015
G1 X67.316 Y151.817 E10.29547
G1 X66.865 Y151.59 E10.32066
G1 X66.591 Y151.403 E10.33721
G1 X65.56 Y150.62 E10.4018
G1 X65.182 Y150.284 E10.42703
G1 X64.966 Y150.033 E10.44355
G1 X64.165 Y149 E10.50877
G1 X63.888 Y148.577 E10.53399
G1 X63.744 Y148.278 E10.55055
G1 X63.241 Y147.08 E10.61537
G1 X63.082 Y146.6 E10.6406
G1 X63.014 Y146.223 E10.65971
G1 X62.825 Y144.649 E10.7388
G1 X62.802 Y144.266 E10.75794
G1 X62.814 Y118.489 E12.04396
G1 X62.842 Y118.07 E12.06491
G1 X63.005 Y116.839 E12.12687
G1 X63.11 Y116.345 E12.15206
G1 X63.215 Y116.049 E12.16773
G1 X63.719 Y114.815 E12.23423
G1 X63.791 Y114.651 E12.24317
G1 X66.866 Y108.18 E12.6006
G1 X68.906 Y103.076 E12.87483
G1 X69.788 Y100.555 E13.00808
G1 X71.393 Y95.276 E13.28335
G1 X72.683 Y89.967 E13.55593
G1 X73.226 Y87.237 E13.69479
G1 X73.668 Y84.618 E13.8273
G1 X74.358 Y79.144 E14.10256
G1 X74.735 Y73.659 E14.37686
G1 X74.89 Y68.609 E14.62892
G1 X74.918 Y68.273 E14.64574
G1 X75.165 Y66.47 E14.73654
G1 X75.21 Y66.216 E14.74941
G1 X75.524 Y64.789 E14.8223
G1 X75.595 Y64.522 E14.83609
G1 X76.206 Y62.567 E14.93827
G1 X76.304 Y62.296 E14.95265
G1 X76.877 Y60.915 E15.02724
G1 X76.981 Y60.689 E15.03966
G1 X77.758 Y59.163 E15.12509
G1 X77.886 Y58.936 E15.13809
G1 X78.63 Y57.729 E15.20883
G1 X78.808 Y57.469 E15.22455
G0 F3600 X80.886 Y58.915
G0 X81.956 Y59.656
G0 X81.771 Y60.03
G0 X81.687 Y59.976
;TYPE:WALL-INNER
G1 F1800 X82.464 Y58.857 E15.29251
G1 X83.343 Y57.766 E15.36241
G1 X84.282 Y56.757 E15.43118
G1 X85.283 Y55.826 E15.49938
G1 X86.388 Y54.936 E15.57017
G1 X87.501 Y54.162 E15.6378
G1 X88.694 Y53.455 E15.70699
G1 X89.947 Y52.827 E15.77691
G1 X91.219 Y52.3 E15.8456
G1 X92.536 Y51.863 E15.91483
G1 X93.875 Y51.52 E15.98379
G1 X95.242 Y51.273 E16.05309
G1 X96.617 Y51.125 E16.12209
G1 X98.021 Y51.076 E16.19218
G1 X113.978 Y51.076 E16.98828
G1 X115.383 Y51.125 E17.05841
G1 X116.758 Y51.273 E17.12741
G1 X118.125 Y51.52 E17.19671
G1 X119.464 Y51.863 E17.26567
G1 X120.781 Y52.3 E17.3349
G1 X122.053 Y52.827 E17.40359
G1 X123.306 Y53.455 E17.47352
G1 X124.499 Y54.162 E17.5427
G1 X125.612 Y54.936 E17.61034
G1 X126.717 Y55.826 E17.68112
G1 X127.718 Y56.757 E17.74933
G1 X128.657 Y57.766 E17.81809
G1 X129.536 Y58.857 E17.88799
G1 X130.313 Y59.976 E17.95596
G1 X131.02 Y61.169 E18.02514
G1 X131.648 Y62.422 E18.09507
G1 X132.173 Y63.69 E18.16353
G1 X132.614 Y65.016 E18.23325
G1 X132.954 Y66.346 E18.30174
G1 X133.203 Y67.722 E18.3715
G1 X133.349 Y69.084 E18.43984
G1 X133.399 Y70.476 E18.50934
G1 X133.399 Y104.824 E20.22296
G1 X125.399 Y104.824 E20.62209
G1 X125.399 Y114.124 E21.08606
G1 X133.399 Y114.124 E21.48519
G1 X133.399 Y121.203 E21.83836
G1 X91.819 Y148.924 E24.33155
G1 X84.601 Y148.924 E24.69165
G1 X84.601 Y140.924 E25.09078
G1 X75.401 Y140.924 E25.54977
G1 X75.401 Y148.924 E25.94889
G1 X71.041 Y148.924 E26.16641
G1 X69.865 Y148.77 E26.22558
G1 X68.803 Y148.33 E26.28293
G1 X67.893 Y147.632 E26.34015
G1 X67.195 Y146.722 E26.39737
G1 X66.755 Y145.66 E26.45472
G1 X66.601 Y144.484 E26.51389
G1 X66.601 Y118.564 E27.80704
G1 X66.755 Y117.387 E27.86626
G1 X67.194 Y116.327 E27.9235
G1 X67.893 Y115.417 E27.98075
G1 X68.803 Y114.719 E28.03797
G1 X69.866 Y114.279 E28.09537
G1 X71.041 Y114.124 E28.15449
G1 X96.601 Y114.124 E29.42969
G1 X96.601 Y104.824 E29.89367
G1 X88.428 Y104.824 E30.30142
G1 X78.6 Y76.376 E31.80301
G1 X78.6 Y70.497 E32.09631
G1 X78.649 Y69.099 E32.1661
G1 X78.797 Y67.722 E32.23519
G1 X79.046 Y66.346 E32.30496
G1 X79.386 Y65.016 E32.37345
G1 X79.812 Y63.731 E32.44099
G1 X80.369 Y62.389 E32.51348
G1 X80.98 Y61.169 E32.58155
G1 X81.687 Y59.976 E32.65073
G0 F3600 X81.771 Y60.03
G0 X90.634 Y65.846
G0 X90.718 Y65.899
G1 F1800 X90.252 Y66.743 E32.69883
G1 X89.882 Y67.635 E32.74701
G1 X89.615 Y68.562 E32.79514
G1 X89.454 Y69.513 E32.84326
G1 X89.399 Y70.476 E32.89138
G1 X89.454 Y71.438 E32.93946
G1 X89.615 Y72.389 E32.98758
G1 X89.882 Y73.316 E33.03571
G1 X90.252 Y74.208 E33.08388
G1 X90.718 Y75.052 E33.13198
G1 X91.276 Y75.838 E33.18007
G1 X91.919 Y76.557 E33.2282
G1 X92.638 Y77.2 E33.27632
G1 X93.424 Y77.758 E33.32441
G1 X94.268 Y78.224 E33.37251
G1 X95.16 Y78.594 E33.42069
G1 X96.087 Y78.861 E33.46882
G1 X97.038 Y79.022 E33.51694
G1 X98 Y79.077 E33.56501
G1 X98.963 Y79.022 E33.61313
G1 X99.915 Y78.861 E33.6613
G1 X100.84 Y78.594 E33.70934
G1 X101.732 Y78.224 E33.75751
G1 X102.576 Y77.758 E33.80561
G1 X103.362 Y77.2 E33.8537
G1 X104.081 Y76.557 E33.90183
G1 X104.724 Y75.838 E33.94995
G1 X105.282 Y75.052 E33.99804
G1 X105.748 Y74.208 E34.04614
G1 X106.118 Y73.316 E34.09432
G1 X106.385 Y72.389 E34.14245
G1 X106.546 Y71.438 E34.19057
G1 X106.6 Y70.476 E34.23864
G1 X106.546 Y69.513 E34.28676
G1 X106.385 Y68.562 E34.33488
G1 X106.118 Y67.635 E34.38301
G1 X105.748 Y66.743 E34.43118
G1 X105.282 Y65.899 E34.47928
G1 X104.724 Y65.113 E34.52737
G1 X104.081 Y64.394 E34.5755
G1 X103.362 Y63.751 E34.62362
G1 X102.576 Y63.193 E34.67171
G1 X101.732 Y62.727 E34.71981
G1 X100.84 Y62.357 E34.76799
G1 X99.915 Y62.09 E34.81602
G1 X98.963 Y61.929 E34.86419
G1 X98 Y61.875 E34.91231
G1 X97.038 Y61.929 E34.96038
G1 X96.087 Y62.09 E35.0085
G1 X95.16 Y62.357 E35.05663
G1 X94.268 Y62.727 E35.10481
G1 X93.424 Y63.193 E35.15291
G1 X92.638 Y63.751 E35.201
G1 X91.919 Y64.394 E35.24912
G1 X91.276 Y65.113 E35.29724
G1 X90.718 Y65.899 E35.34533
G0 F3600 X90.634 Y65.846
G0 X91.891 Y64.366
G0 X92.614 Y63.72
G0 X93.403 Y63.16
G0 X94.251 Y62.691
G0 X95.147 Y62.32
G0 X96.079 Y62.051
G0 X97.034 Y61.89
G0 X98 Y61.835
G0 X98.967 Y61.89
G0 X99.923 Y62.052
G0 X100.853 Y62.32
G0 X101.749 Y62.691
G0 X114.347 Y69.282
G0 X114.443 Y69.306
G1 F1800 X114.294 Y70.476 E35.40418
G1 X114.443 Y71.645 E35.46297
G1 X114.877 Y72.742 E35.52183
G1 X115.57 Y73.696 E35.58066
G1 X116.479 Y74.447 E35.63948
G1 X117.546 Y74.95 E35.69833
G1 X118.704 Y75.17 E35.75714
G1 X119.882 Y75.097 E35.81602
G1 X121.003 Y74.732 E35.87484
G1 X121.999 Y74.101 E35.93366
G1 X122.805 Y73.24 E35.9925
G1 X123.374 Y72.208 E36.0513
G1 X123.667 Y71.064 E36.11021
G1 X123.667 Y69.887 E36.16893
G1 X123.374 Y68.743 E36.22785
G1 X122.805 Y67.711 E36.28664
G1 X121.999 Y66.85 E36.34548
G1 X121.003 Y66.219 E36.40431
G1 X119.882 Y65.854 E36.46312
G1 X118.704 Y65.781 E36.52201
G1 X117.546 Y66.001 E36.58081
G1 X116.479 Y66.504 E36.63967
G1 X115.57 Y67.255 E36.69849
G1 X114.877 Y68.209 E36.75732
G1 X114.443 Y69.306 E36.81618
G0 F3600 X114.347 Y69.282
G0 X111.431 Y107.211
G0 X111.413 Y107.309
G1 F1800 X110.861 Y107.275 E36.84377
G1 X110.318 Y107.377 E36.87133
G1 X109.818 Y107.614 E36.89894
G1 X109.392 Y107.965 E36.92648
G1 X109.066 Y108.413 E36.95412
G1 X108.865 Y108.927 E36.98165
G1 X108.794 Y109.474 E37.00917
G1 X108.865 Y110.022 E37.03674
G1 X109.066 Y110.536 E37.06427
G1 X109.392 Y110.984 E37.09192
G1 X109.818 Y111.335 E37.11945
G1 X110.318 Y111.572 E37.14706
G1 X110.861 Y111.674 E37.17462
G1 X111.413 Y111.64 E37.20222
G1 X111.939 Y111.469 E37.22981
G1 X112.404 Y111.173 E37.25731
G1 X112.783 Y110.771 E37.28487
G1 X113.049 Y110.285 E37.31251
G1 X113.187 Y109.751 E37.34003
G1 X113.187 Y109.198 E37.36762
G1 X113.049 Y108.663 E37.39519
G1 X112.783 Y108.178 E37.42278
G1 X112.404 Y107.776 E37.45035
G1 X111.939 Y107.48 E37.47785
G1 X111.413 Y107.309 E37.50544
G0 F3600 X111.431 Y107.211
G0 X110.859 Y107.236
G0 X110.306 Y107.339
G0 X109.797 Y107.581
G0 X81.864 Y130.17
G0 X81.784 Y130.228
G1 F1800 X81.405 Y129.826 E37.533
G1 X80.94 Y129.53 E37.5605
G1 X80.414 Y129.359 E37.5881
G1 X79.862 Y129.325 E37.61569
G1 X79.319 Y129.427 E37.64325
G1 X78.819 Y129.664 E37.67086
G1 X78.393 Y130.015 E37.6984
G1 X78.067 Y130.463 E37.72604
G1 X77.866 Y130.977 E37.75357
G1 X77.796 Y131.524 E37.78109
G1 X77.865 Y132.072 E37.80864
G1 X78.067 Y132.586 E37.8362
G1 X78.393 Y133.034 E37.86384
G1 X78.819 Y133.385 E37.89138
G1 X79.319 Y133.622 E37.91898
G1 X79.862 Y133.724 E37.94655
G1 X80.414 Y133.69 E37.97414
G1 X80.94 Y133.519 E38.00173
G1 X81.405 Y133.223 E38.02923
G1 X81.784 Y132.821 E38.0568
G1 X82.05 Y132.335 E38.08444
G1 X82.188 Y131.801 E38.11195
G1 X82.188 Y131.248 E38.13954
G1 X82.05 Y130.713 E38.16711
G1 X81.784 Y130.228 E38.1947
G0 F3600 X81.458 Y130.465
;TYPE:WALL-OUTER
G1 F1800 X81.148 Y130.137 E38.21722
G1 X80.768 Y129.895 E38.2397
G1 X80.338 Y129.755 E38.26226
G1 X79.887 Y129.727 E38.2848
G1 X79.444 Y129.811 E38.3073
G1 X79.035 Y130.004 E38.32986
G1 X78.687 Y130.291 E38.35236
G1 X78.421 Y130.657 E38.37494
G1 X78.256 Y131.077 E38.39745
G1 X78.199 Y131.524 E38.41993
G1 X78.256 Y131.972 E38.44246
G1 X78.421 Y132.392 E38.46498
G1 X78.687 Y132.758 E38.48755
G1 X79.035 Y133.045 E38.51005
G1 X79.444 Y133.238 E38.53262
G1 X79.887 Y133.322 E38.55511
G1 X80.338 Y133.294 E38.57765
G1 X80.768 Y133.154 E38.60022
G1 X81.148 Y132.912 E38.62269
G1 X81.458 Y132.584 E38.64521
G1 X81.675 Y132.187 E38.66778
G1 X81.788 Y131.75 E38.6903
G1 X81.788 Y131.299 E38.7128
G1 X81.675 Y130.861 E38.73537
G1 X81.458 Y130.465 E38.7579
G0 F3600 X81.821 Y130.123
G0 X82.087 Y130.699
G0 X82.227 Y131.243
G0 X82.177 Y131.509
G0 X84.608 Y140.963
G0 X84.701 Y141.324
G0 X84.201 Y141.324
G1 F1800 X75.801 Y141.324 E39.17697
G1 X75.801 Y149.324 E39.57609
G1 X71.012 Y149.324 E39.81502
G1 X69.761 Y149.16 E39.87797
G1 X68.602 Y148.68 E39.94055
G1 X67.608 Y147.917 E40.00307
G1 X66.845 Y146.923 E40.06558
G1 X66.365 Y145.764 E40.12817
G1 X66.201 Y144.513 E40.19112
G1 X66.201 Y118.535 E41.48716
G1 X66.365 Y117.283 E41.55016
G1 X66.844 Y116.126 E41.61263
G1 X67.608 Y115.132 E41.67518
G1 X68.602 Y114.369 E41.7377
G1 X69.761 Y113.889 E41.80028
G1 X71.012 Y113.724 E41.86324
G1 X96.201 Y113.724 E43.11992
G1 X96.201 Y105.224 E43.54399
G1 X88.143 Y105.224 E43.946
G1 X78.2 Y76.443 E45.46516
G1 X78.2 Y70.483 E45.76251
G1 X78.25 Y69.07 E45.83305
G1 X78.401 Y67.665 E45.90355
G1 X78.655 Y66.26 E45.97478
G1 X79.001 Y64.904 E46.0446
G1 X79.432 Y63.605 E46.11288
G1 X80.011 Y62.21 E46.18823
G1 X80.626 Y60.981 E46.2568
G1 X81.347 Y59.765 E46.32733
G1 X82.146 Y58.615 E46.39719
G1 X83.042 Y57.503 E46.46843
G1 X83.999 Y56.474 E46.53854
G1 X85.028 Y55.517 E46.60865
G1 X86.137 Y54.624 E46.67969
G1 X87.29 Y53.822 E46.74976
G1 X88.506 Y53.101 E46.82029
G1 X89.782 Y52.462 E46.89148
G1 X91.079 Y51.925 E46.96152
G1 X92.424 Y51.478 E47.03223
G1 X93.789 Y51.129 E47.10252
G1 X95.185 Y50.877 E47.17329
G1 X96.588 Y50.726 E47.24369
G1 X98.007 Y50.676 E47.31453
G1 X113.992 Y50.676 E48.11202
G1 X115.412 Y50.726 E48.18291
G1 X116.815 Y50.877 E48.25331
G1 X118.211 Y51.129 E48.32408
G1 X119.576 Y51.478 E48.39437
G1 X120.921 Y51.925 E48.46509
G1 X122.218 Y52.462 E48.53512
G1 X123.494 Y53.101 E48.60632
G1 X124.71 Y53.822 E48.67685
G1 X125.863 Y54.624 E48.74692
G1 X126.972 Y55.517 E48.81795
G1 X128.001 Y56.474 E48.88806
G1 X128.958 Y57.503 E48.95817
G1 X129.854 Y58.615 E49.02941
G1 X130.653 Y59.765 E49.09928
G1 X131.374 Y60.981 E49.1698
G1 X132.013 Y62.257 E49.241
G1 X132.548 Y63.549 E49.31077
G1 X132.999 Y64.904 E49.38201
G1 X133.345 Y66.26 E49.45183
G1 X133.599 Y67.665 E49.52306
G1 X133.749 Y69.063 E49.59321
G1 X133.799 Y70.476 E49.66375
G1 X133.799 Y105.224 E51.39734
G1 X125.799 Y105.224 E51.79646
G1 X125.799 Y113.724 E52.22052
G1 X133.799 Y113.724 E52.61965
G1 X133.799 Y121.417 E53.00345
G1 X91.941 Y149.324 E55.51333
G1 X84.201 Y149.324 E55.89948
G1 X84.201 Y141.324 E56.2986
G0 F3600 X84.701 Y141.324
G0 X109.368 Y111.093
G0 X109.686 Y110.708
G1 F1800 X110.034 Y110.995 E56.3211
G1 X110.443 Y111.188 E56.34367
G1 X110.886 Y111.272 E56.36616
G1 X111.337 Y111.244 E56.3887
G1 X111.767 Y111.104 E56.41127
G1 X112.147 Y110.862 E56.43374
G1 X112.457 Y110.534 E56.45626
G1 X112.674 Y110.137 E56.47883
G1 X112.787 Y109.7 E56.50135
G1 X112.787 Y109.249 E56.52385
G1 X112.674 Y108.811 E56.54642
G1 X112.457 Y108.415 E56.56895
G1 X112.147 Y108.087 E56.59146
G1 X111.767 Y107.845 E56.61394
G1 X111.337 Y107.705 E56.6365
G1 X110.886 Y107.677 E56.65904
G1 X110.443 Y107.761 E56.68154
G1 X110.034 Y107.954 E56.7041
G1 X109.686 Y108.241 E56.72661
G1 X109.42 Y108.607 E56.74918
G1 X109.255 Y109.027 E56.77169
G1 X109.197 Y109.474 E56.79418
G1 X109.255 Y109.922 E56.81672
G1 X109.42 Y110.342 E56.83923
G1 X109.686 Y110.708 E56.8618
G0 F3600 X109.368 Y111.093
G0 X109.031 Y110.555
G0 X108.827 Y110.031
G0 X100.846 Y78.696
G0 X100.708 Y78.216
G1 F1800 X101.558 Y77.863 E56.90772
G1 X102.363 Y77.419 E56.95359
G1 X103.112 Y76.887 E56.99942
G1 X103.798 Y76.274 E57.04532
G1 X104.411 Y75.588 E57.09122
G1 X104.943 Y74.839 E57.13705
G1 X105.387 Y74.034 E57.18292
G1 X105.74 Y73.184 E57.22883
G1 X105.994 Y72.3 E57.27472
G1 X106.148 Y71.393 E57.32062
G1 X106.199 Y70.476 E57.36644
G1 X106.148 Y69.558 E57.41231
G1 X105.994 Y68.651 E57.45821
G1 X105.74 Y67.767 E57.50409
G1 X105.387 Y66.917 E57.55001
G1 X104.943 Y66.112 E57.59588
G1 X104.411 Y65.363 E57.64171
G1 X103.798 Y64.677 E57.68761
G1 X103.112 Y64.064 E57.73351
G1 X102.363 Y63.532 E57.77934
G1 X101.558 Y63.088 E57.82521
G1 X100.708 Y62.735 E57.87113
G1 X99.826 Y62.481 E57.91692
G1 X98.918 Y62.327 E57.96287
G1 X98 Y62.276 E58.00874
G1 X97.083 Y62.327 E58.05456
G1 X96.176 Y62.481 E58.10045
G1 X95.292 Y62.735 E58.14634
G1 X94.442 Y63.088 E58.19226
G1 X93.637 Y63.532 E58.23812
G1 X92.888 Y64.064 E58.28396
G1 X92.202 Y64.677 E58.32986
G1 X91.589 Y65.363 E58.37576
G1 X91.057 Y66.112 E58.42159
G1 X90.613 Y66.917 E58.46746
